src/sources/forus-platform/resources/_platform-common/assets/img/features/icons/auth-2-fa/icon-4.svg

<svg width="59" height="58" viewBox="0 0 59 58" fill="none" xmlns="http://www.w3.org/2000/svg">
    <rect x="0.5" width="58" height="58" rx="8" fill="#F7F9FC"/>
    <path d="M24.1416 31.3303H25.7247C31.1176 31.3307 35.4892 35.7038 35.4892 41.098C35.4892 43.253 33.7422 45 31.5872 45H18.277C16.122 45 14.375 43.253 14.375 41.098C14.375 35.7034 18.7471 31.3303 24.1403 31.3303H24.1416Z" fill="#092DAA"/>
    <path d="M31.8637 24.4204C31.8658 25.2611 31.7132 26.095 31.4136 26.8806C30.0598 30.4438 26.0745 32.2346 22.5122 30.8805C18.9499 29.5264 17.1594 25.5401 18.5132 21.9769C19.867 18.4136 23.8523 16.6228 27.4146 17.9769C30.0902 18.9939 31.8602 21.5575 31.8637 24.4204Z" fill="#9CB8F8"/>
    <path d="M44.4736 25.6722L43.6959 27.0109C43.3883 27.5404 42.7111 27.7221 42.1799 27.4176L40.9876 26.7305C40.2071 27.4709 39.261 28.0139 38.228 28.314V29.6686C38.2273 30.2833 37.7292 30.7815 37.1147 30.7821H35.5473C34.9327 30.7815 34.4347 30.2833 34.434 29.6686V28.314C33.4007 28.0148 32.4543 27.4717 31.6744 26.7305L31.4138 26.8806C32.6639 23.5904 31.2385 19.8863 28.1055 18.2837C28.1282 18.2223 28.1559 18.1628 28.1884 18.1059L28.9622 16.7712C29.2702 16.2423 29.9469 16.0608 30.4782 16.3645L31.6745 17.0477C32.4553 16.3079 33.4014 15.765 34.4341 15.4641V14.1136C34.4333 13.4993 34.9307 13.0007 35.5449 13H35.5473H37.1147C37.7289 12.9993 38.2273 13.4969 38.228 14.1113V14.1137V15.4642C39.2602 15.766 40.2061 16.3088 40.9876 17.0478L42.1799 16.3646C42.7111 16.0602 43.3883 16.2419 43.6959 16.7713L44.4736 18.106C44.7825 18.6353 44.6038 19.3149 44.0745 19.6237C44.0707 19.6259 44.0669 19.6281 44.0631 19.6303L42.8826 20.3095C43.1458 21.3474 43.1458 22.4347 42.8826 23.4726L44.0631 24.1478C44.5961 24.4509 44.7825 25.1288 44.4795 25.662C44.4775 25.6655 44.4755 25.6689 44.4736 25.6722Z" fill="#305DFC"/>
    <path d="M36.3301 25.0593C38.0941 25.0593 39.524 23.6403 39.524 21.8899C39.524 20.1394 38.0941 18.7204 36.3301 18.7204C34.5662 18.7204 33.1362 20.1394 33.1362 21.8899C33.1362 23.6403 34.5662 25.0593 36.3301 25.0593Z" fill="white"/>
</svg>

<svg width="59" height="58" fill="none" xmlns="http://www.w3.org/2000/svg"><rect x=".5" width="58" height="58" rx="8" fill="#F7F9FC"/><path d="M24.142 31.33h1.583c5.393 0 9.764 4.374 9.764 9.768A3.902 3.902 0 0 1 31.587 45h-13.31a3.902 3.902 0 0 1-3.902-3.902c0-5.395 4.372-9.768 9.765-9.768h.002Z" fill="#092DAA"/><path d="M31.864 24.42a6.9 6.9 0 1 1-13.35-2.444 6.9 6.9 0 0 1 13.35 2.444Z" fill="#9CB8F8"/><path d="m44.474 25.672-.778 1.339c-.308.53-.985.711-1.516.407l-1.192-.688a6.743 6.743 0 0 1-2.76 1.584v1.355c0 .614-.499 1.113-1.113 1.113h-1.568a1.115 1.115 0 0 1-1.113-1.113v-1.355a6.718 6.718 0 0 1-2.76-1.584l-.26.15a6.903 6.903 0 0 0-3.309-8.596c.023-.062.05-.121.083-.178l.774-1.335c.308-.529.985-.71 1.516-.407l1.196.684a6.763 6.763 0 0 1 2.76-1.584v-1.35c0-.615.497-1.113 1.11-1.114h1.571c.614 0 1.112.497 1.113 1.111v1.353a6.79 6.79 0 0 1 2.76 1.584l1.192-.683a1.113 1.113 0 0 1 1.516.406l.778 1.335a1.11 1.11 0 0 1-.4 1.518l-.01.006-1.181.68a6.434 6.434 0 0 1 0 3.163l1.18.675c.533.303.72.98.416 1.514l-.005.01Z" fill="#305DFC"/><path d="M36.33 25.06c1.764 0 3.194-1.42 3.194-3.17s-1.43-3.17-3.194-3.17-3.194 1.42-3.194 3.17 1.43 3.17 3.194 3.17Z" fill="#fff"/></svg>
